public/images/facebook-logo.svg

<?xml version="1.0" encoding="UTF-8" standalone="no"?>
<svg width="268px" height="268px" viewBox="0 0 268 268" version="1.1" xmlns="http://www.w3.org/2000/svg" xmlns:xlink="http://www.w3.org/1999/xlink" xmlns:sketch="http://www.bohemiancoding.com/sketch/ns">
    <!-- Generator: Sketch 3.4.2 (15855) - http://www.bohemiancoding.com/sketch -->
    <title>Slice 1</title>
    <desc>Created with Sketch.</desc>
    <defs></defs>
    <g id="Page-1" stroke="none" stroke-width="1" fill="none" fill-rule="evenodd" sketch:type="MSPage">
        <g id="FB-fLogo-online-broadcast" sketch:type="MSLayerGroup" fill="#FFFFFF">
            <path d="M252.717,0.553 L15.283,0.553 C7.146,0.553 0.553,7.146 0.553,15.283 L0.553,252.717 C0.553,260.852 7.146,267.447 15.283,267.447 L143.109,267.447 L143.109,164.092 L108.328,164.092 L108.328,123.812 L143.109,123.812 L143.109,94.107 C143.109,59.634 164.164,40.863 194.916,40.863 C209.646,40.863 222.307,41.96 225.996,42.45 L225.996,78.476 L204.668,78.486 C187.943,78.486 184.705,86.433 184.705,98.095 L184.705,123.812 L224.592,123.812 L219.398,164.092 L184.705,164.092 L184.705,267.447 L252.717,267.447 C260.852,267.447 267.447,260.852 267.447,252.717 L267.447,15.283 C267.447,7.146 260.852,0.553 252.717,0.553" id="Fill-14" sketch:type="MSShapeGroup"></path>
        </g>
    </g>
</svg>

<?xml version="1.0" encoding="utf-8"?>
<!-- Generator: Adobe Illustrator 21.1.0, SVG Export Plug-In . SVG Version: 6.00 Build 0)  -->
<svg version="1.1" id="Layer_1" xmlns:sketch="http://www.bohemiancoding.com/sketch/ns"
	 xmlns="http://www.w3.org/2000/svg" xmlns:xlink="http://www.w3.org/1999/xlink" x="0px" y="0px" viewBox="0 0 268 268"
	 enable-background="new 0 0 268 268" xml:space="preserve">
<title>Slice 1</title>
<desc>Created with Sketch.</desc>
<g id="Page-1" sketch:type="MSPage">
	<g id="FB-fLogo-online-broadcast" sketch:type="MSLayerGroup">
		<path id="Fill-14" sketch:type="MSShapeGroup" d="M252.7,0.6H15.3C7.1,0.6,0.6,7.1,0.6,15.3v237.4c0,8.1,6.6,14.7,14.7,14.7h127.8
			V164.1h-34.8v-40.3h34.8V94.1c0-34.5,21.1-53.2,51.8-53.2c14.7,0,27.4,1.1,31.1,1.6v36l-21.3,0c-16.7,0-20,7.9-20,19.6v25.7h39.9
			l-5.2,40.3h-34.7v103.4h68c8.1,0,14.7-6.6,14.7-14.7V15.3C267.4,7.1,260.9,0.6,252.7,0.6"/>
	</g>
</g>
</svg>
